X: 396
T:Darby's farewell to London
R:Reel
C:Josie McDermott
Z:Transcribed by Andrew Pickering
M:4/4
L:1/8
K:G
BGEG DEGA|(3BAG dG eGdG|BE (3EEE DEGA|BGdB G3 A|
B2 EG DEGA|(3BAG dG eGdG|BE (3EEE eGdG|FGAF G3 A:|
BABd eg g2|e2 ag eg g2|GABd g2 eg|dBAB GE D2|
DEGA Bd d2|e2 ag eg g2|bgag egdG|FGAF G2:|
<end>
<start>
